X:1373
T:Belvidere Hornpipe
M:2/4
L:1/16
K:G
d2|Bcde dcBc|dBgB aBgB|Bcde dcBc|Aaag fedc|!
Bcde dcBc|dBgB aBgB|cBAG FDEF|G2B2 G2:|!
|:D2|BcBA G2BG|DGBG DGBG|BcBA G2BG|FGAB cedc|!
BcBA G2BG|DGBG DGBd|cBAG FDEF|G2B2 G2:|!


